X:1
T:Montagues and Capulets
T:Montagues and Capulets
T:from Romeo and Juliet
T:Serge Prokofieff
C:Serge Prokofieff
%%score { 1 | 2 } { 3 | 4 }
L:1/8
Q:1/4=100
M:4/4
K:G
V:1 treble nm="Grand Piano" snm="Pno."
V:2 treble 
V:3 bass nm="Grand Piano" snm="Pno."
V:4 bass 
V:1
"^Allegro Pesante" z8 | z8 |!f! z z/ E/ !tenuto!G>B !tenuto!e>B G>E | z z/ E/ G>B .e z z2 | %4
 z z/ d/ !tenuto!f>b !tenuto!d'>b !tenuto!f>d | z z/ d/ f>b d'4- | %6
 d'>_e' !tenuto!d'>^c' z2 !tenuto!d'2 | z z/ _e/ !>!d<^c !>!c2 z2 | z8 | z4 z2 !>!B2- | %10
 B>e g>b e'>b g>e | B>e g>b e' z !>!b2- | b>!8va(!d' !tenuto!f'>b' !tenuto!d''>b' !tenuto!f'>d' | %13
 !tenuto!b>d' !>!f'4!8va)! !>!f'2- | f'>g' !>!f'<^e' !>!e'2 !>!f2 | %15
 !tenuto!^e>g !tenuto!f>^a' !>!^e'2 !>!f2 | !>!=f z !tenuto!d>f !tenuto!a>f !tenuto!d>f | %17
 !tenuto!a>=f !tenuto!d>f !tenuto!a>f !tenuto!d>f | %18
 !tenuto!a>=f !tenuto!d>f !tenuto!a>f !tenuto!d>f | %19
 !tenuto!a>=f !tenuto!d>f !tenuto!a>f !tenuto!d>f | %20
 !tenuto!a>=f !tenuto!d>A !tenuto!A>d !tenuto!f>a | a>=f d>f a>A d2 | a>c' e'>a' c''>a' e'>c' | %23
 a>c' e'>a' .c'' z e'2- | e'>=f' !tenuto!e'>^d' !>!e2 !>!f'2 | e'>=f' !>!e'>^d' !>!d'2 e2 | %26
 z2 z z/ B/ e>a g>e | e>a g>e e>B _A>E ||[K:Ab] F>A c>f a>f c>A | F>A c>f a>f c>A | %30
 c>f a>c' f'>c' a>f | a>c f>a .=b z !tenuto!c2 | %32
 !tenuto!c2 !tenuto!c2 !tenuto!c2 !tenuto!c!tenuto!=d | %33
 !tenuto!e!tenuto!f!tenuto!g!tenuto!a !tenuto!g2 !tenuto!g!tenuto!a | %34
!<(! !tenuto!b!tenuto!c'!tenuto!=d'!tenuto!e' !tenuto!f'!tenuto!g'!tenuto!a'!tenuto!b'!<)! || %35
[K:G]!ff! .b'.g'.e'.c' .a.f.^d.B | z8 | z8 | B>e g>b e'>b g>e | B>e g>b .e' z !>!b2- | %40
 b>!8va(!d' f'>b' d''>b' f'>d' | b>d' f'>b' d''4- | d''>_e'' d''>^c'' !>!d'2 !>!d''2!8va)! | %43
 d'>_e' !>!d'<^c' !>!c'2 !>!d2- | d>_e !>!d>^c- c>e !>!d>c- | c z !>![gc'e']2 !>![gbe']2 z2 |] %46
V:2
"^1" z8 |"^2" z8 | !tenuto!B,3/2 z/ z2 z4 | !tenuto!B,3/2 z/ z2 z2 !>!B2- | B3/2 z/ z2 z4 | %5
 B3/2 z/ z2 z4 | z4 !>!d2 z2 | d3/2 z/ z2 z2 !>!D2- | D>_E !>!D>^C- C>E !>!D>C- | %9
 C>G !>!F4 !>!B,2- | B,>E G>B e>B G>E | B,>E G>B e z !>!B2- | %12
 B>d !tenuto!f>b !tenuto!d'>b !tenuto!f>d | !tenuto!B>d !>!f4 !>!f2- | f>g !>!f<^e !>!e2 F2 | %15
 !tenuto!^E>G !tenuto!F>^a !>!^e2 !>!F2 | !tenuto!=F>A z2 z4 | %17
 !tenuto!d>A !tenuto!=F>A !tenuto!F2 z2 | !tenuto!D>=F !tenuto!A>F !tenuto!D>F !tenuto!A2 | %19
 !tenuto!=F>A !tenuto!d>_B !tenuto!A>F !tenuto!A2 | z4 z3/2 =F/ A>d | %21
 !tenuto!c2 !tenuto!A2 !tenuto!=F2 !tenuto!D2 | A>c e>a c'>a e>c | A>c e>a .c' z !>!e2- | %24
 e>=f !tenuto!e>^d !>!E2 !>!f2 | e>=f !>!e>^d !>!d2 !>!E2 | B,>E G3/2 z2 c/ B>_A | G2 z2 z4 || %28
[K:Ab][K:bass] z3/2 C/ A,>F, C,>F, A,>C | z3/2 C/ A,>F, C,>F, A,>C | z2[K:treble] F2 C>F A>c | %31
 C>F A>c .G z !tenuto![CG]2 | !tenuto!C2 z2 !tenuto!C2 !tenuto!C!tenuto!=D | %33
 !tenuto!E!tenuto!F!tenuto!G!tenuto!A !tenuto!G2 !tenuto!G!tenuto!A | %34
 !tenuto!B!tenuto!c!tenuto!=d!tenuto!e !tenuto!f!tenuto!g!tenuto!a!tenuto!b || %35
[K:G] .b.g.e.c .A.F.^D.B, | .E z z2 z4 | z8 | B,>!f!E G>B e>B G>E | B,>E G>B .e z B2- | %40
 B>d f>b d'>b f>d | B>d f>b d'4- | d'>_e' d'>^c' !>!d2 !>!d'2 | d>_e !>!d<^c !>!c2 !>!D2- | %44
 D>_E !>!D>^C- C>E !>!D>C- | C z !>![G^d]2 !>![GBe]2 z2 |] %46
V:3
!f! z2 !tenuto![B,,G,B,]2 z2 !tenuto![B,,G,B,]2 | z2 !tenuto![B,,G,B,]2 z2 !tenuto![B,,G,B,]2 | %2
 z2 !tenuto![B,,G,B,]2 z2 !tenuto![B,,G,B,]2 | z2 !tenuto![B,,G,B,]2 z2 !tenuto![B,,G,B,]2 | %4
 z2 !tenuto![F,B,F]2 z2 !tenuto![F,B,F]2 | z2 !tenuto![F,B,F]2 z2 !tenuto![F,B,F]2 | %6
 z2 !tenuto![D,A,^C]2 z2 !tenuto![D,G,_B,]2 | z2 !tenuto![D,A,^C]2 z2 !tenuto![D,G,_B,]2 | %8
 !>![=F,B,]2 z2 !>![E,_B,]2 z2 | !>![E,A,]2 z2 !>![^D,^A,]2 z2 | %10
 z2 !tenuto![B,,G,B,]2 z2 !tenuto![B,,G,B,]2 | z2 !tenuto![B,,G,B,]2 z2 !tenuto![B,,G,B,]2 | %12
 z2 !tenuto![F,B,F]2 z2 !tenuto![F,B,F]2 | z2 !tenuto![F,B,F]2 z2 !tenuto![F,B,F]2 | %14
 z2 !tenuto![F,^CE]2 z2 !tenuto![F,B,D]2 | z2 !tenuto![F,^CE]2 z2 !tenuto![F,B,D]2 | %16
 !>![=F,B,] z z2 z4 | z4 z3/2 D/ A,>=F, |!f! !>!D,2 !>!D,2 !>!D,2 D,E, | =F,G,A,_B, !>!A,2 A,B, | %20
 CDE=F EDCD | C_B,A,G, =F,E, !tenuto!D,2 | z2 !tenuto![E,A,E]2 z2 !tenuto![E,A,E]2 | %23
 z2 !tenuto![E,A,E]2 z2 !tenuto![E,A,E]2 | z2 !tenuto![E,B,^D]2 z2 !tenuto![E,A,C]2 | %25
 z2 !tenuto![E,B,^D]2 z2 !tenuto![E,A,C]2 | [E,G,] z z2 z4 | z3/2 C/ !tenuto!B,>G, _A,2 D,2 || %28
[K:Ab] !>!F,,2 !>!F,,2 !>!F,,2 F,,G,, | A,,B,,C,D, !>!C,2 C,D, | E,F,G,A, G,F,E,F, | %31
 E,D,C,B,, A,,G,, !>!F,,2 | E,G,CG, =D,F,=B,F, | C,E,A,E, B,,=D,G,D, | %34
!<(! A,,C,F,C, G,,B,,E,B,,!<)! ||[K:G]!ff! !>!B,, z .G.E .C.A,.F,.^D, | %36
!f! z2 !tenuto![B,,G,B,]2 z2 !tenuto![B,,G,B,]2 | z2 !tenuto![B,,G,B,]2 z2 !tenuto![B,,G,B,]2 | %38
 z2 !tenuto![B,,G,B,]2 z2 !tenuto![B,,G,B,]2 | z2 !tenuto![B,,G,B,]2 z2 !tenuto![B,,G,B,]2 | %40
 z2 !tenuto![F,B,F]2 z2 !tenuto![F,B,F]2 | z2 !tenuto![F,B,F]2 z2 !tenuto![F,B,F]2 | %42
 z2 !tenuto![D,A,^C]2 z2 !tenuto![D,G,_B,]2 | z2 !tenuto![D,A,^C]2 z2 !tenuto![D,G,_B,]2 | %44
 !>![=F,B,]2 z2 !>![E,_B,]2 z2 | !>![E,A,] z !>![G,C]2 !>![G,E]2 z2 |] %46
V:4
 !tenuto![E,,,E,,]2 z2 !tenuto![G,,,G,,]2 z2 | !tenuto![E,,,E,,]2 z2 !tenuto![G,,,G,,]2 z2 | %2
 !tenuto!E,,2 z2 !tenuto!G,,2 z2 | !tenuto!E,,2 z2 !tenuto!G,,2 z2 | %4
 !tenuto!D,2 z2 !tenuto!B,,2 z2 | !tenuto!D,2 z2 !tenuto!B,,2 z2 | %6
 !tenuto!F,,2 z2 !tenuto!G,,2 z2 | !tenuto!F,,2 z2 !tenuto!G,,2 z2 | %8
 !>![D,,D,]2 z2 !>![^C,,^C,]2 z2 | !>![C,,C,]2 z2 !>![B,,,B,,]2 z2 | %10
 !tenuto![E,,,E,,]2 z2 !tenuto![G,,,G,,]2 z2 | !tenuto![E,,,E,,]2 z2 !tenuto![G,,,G,,]2 z2 | %12
 !tenuto![D,,D,]2 z2 !tenuto![B,,,B,,]2 z2 | !tenuto![D,,D,]2 z2 !tenuto![B,,,B,,]2 z2 | %14
 !>![^A,,,^A,,]2 z2 !tenuto![B,,,B,,]2 z2 | !tenuto![^A,,,^A,,]2 z2 !tenuto![B,,,B,,]2 z2 | %16
 !>![D,,_B,,D,] z z2 z4 | z8 | !>!D,,2 !>!D,,2 !>!D,,2 D,,E,, | =F,,G,,A,,_B,, !>!A,,2 A,,B,, | %20
 C,D,E,=F, E,D,C,D, | C,_B,,A,,G,, =F,,E,, !tenuto!D,,2 | %22
 !tenuto![C,,C,]2 z2 !tenuto![A,,,A,,]2 z2 | !tenuto![C,,C,]2 z2 !tenuto![A,,,A,,]2 z2 | %24
 !tenuto![^G,,,^G,,]2 z2 !tenuto![A,,,A,,]2 z2 | !tenuto![^G,,,^G,,]2 z2 !tenuto![A,,,A,,]2 z2 | %26
 [G,,,G,,] z z2 z4 | z8 ||[K:Ab] !>!F,,,2 !>!F,,,2 !>!F,,,2 F,,,G,,, | %29
 A,,,B,,,C,,D,, !>!C,,2 C,,D,, | E,,F,,G,,A,, G,,F,,E,,F,, | E,,D,,C,,B,,, A,,,G,,, !>!F,,,2 | %32
 E,,G,,C,G,, =D,,F,,=B,,F,, | C,,E,,A,,E,, B,,,=D,,G,,D,, | A,,,C,,F,,C,, G,,,B,,,E,,B,,, || %35
[K:G] !>!B,,, z z2 z4 | !tenuto![E,,,E,,]2 z2 !tenuto![G,,,G,,]2 z2 | %37
 !tenuto![E,,,E,,]2 z2 !tenuto![G,,,G,,]2 z2 | !tenuto![E,,,E,,]2 z2 !tenuto![G,,,G,,]2 z2 | %39
 !tenuto![E,,,E,,]2 z2 !tenuto![G,,,G,,]2 z2 | !tenuto![D,,D,]2 z2 !tenuto![B,,,B,,]2 z2 | %41
 !tenuto![D,,D,]2 z2 !tenuto![B,,,B,,]2 z2 | !>![F,,,F,,]2 z2 !tenuto![G,,,G,,]2 z2 | %43
 !>![F,,,F,,]2 z2 !tenuto![G,,,G,,]2 z2 | !>![D,,D,]2 z2 !>![^C,,^C,]2 z2 | %45
 !>![C,,C,] z !>![B,,,B,,]2 !>![E,,,E,,]2 z2 |] %46

